packages/bezier-icons/icons/new.svg

<svg width="24" height="24" viewBox="0 0 24 24" fill="none" xmlns="http://www.w3.org/2000/svg">
<path fill-rule="evenodd" clip-rule="evenodd" d="M20.9002 16.5001C20.9002 16.7761 20.6913 17.0001 20.433 17.0001H19.341C19.1541 17.0001 18.9861 16.8811 18.9115 16.6971L17.6337 13.5001L16.3548 16.6971C16.2813 16.8811 16.1122 17.0001 15.9253 17.0001H14.8333C14.5761 17.0001 14.3671 16.7761 14.3671 16.5001V7.50012C14.3671 7.22412 14.5761 7.00012 14.8333 7.00012H15.7668C16.024 7.00012 16.233 7.22412 16.233 7.50012V13.5001L17.4195 10.5361C17.4993 10.3341 17.767 10.3341 17.8479 10.5361L19.0333 13.5001V7.50012C19.0333 7.22412 19.2423 7.00012 19.5006 7.00012H20.433C20.6913 7.00012 20.9002 7.22412 20.9002 7.50012V16.5001ZM13.4337 8.50012C13.4337 8.77612 13.2247 9.00012 12.9664 9.00012H11.5668V11.0001H12.9664C13.2247 11.0001 13.4337 11.2241 13.4337 11.5001V12.5001C13.4337 12.7761 13.2247 13.0001 12.9664 13.0001H11.5668V15.0001H12.9664C13.2247 15.0001 13.4337 15.2241 13.4337 15.5001V16.5001C13.4337 16.7761 13.2247 17.0001 12.9664 17.0001H10.1671C9.90881 17.0001 9.69986 16.7761 9.69986 16.5001V7.50012C9.69986 7.22412 9.90881 7.00012 10.1671 7.00012H12.9664C13.2247 7.00012 13.4337 7.22412 13.4337 7.50012V8.50012ZM8.76642 16.5001C8.76642 16.7761 8.55747 17.0001 8.30022 17.0001H7.66497C7.40667 17.0001 7.19772 16.7761 7.19772 16.5001L5.96712 11.7691V16.5001C5.96712 16.7761 5.75817 17.0001 5.49987 17.0001H4.56642C4.30917 17.0001 4.10022 16.7761 4.10022 16.5001V7.50012C4.10022 7.22412 4.30917 7.00012 4.56642 7.00012H5.33292C5.53347 7.00012 5.71197 7.13812 5.77602 7.34212L6.90057 11.4811V7.50012C6.90057 7.22412 7.10952 7.00012 7.36677 7.00012H8.30022C8.55747 7.00012 8.76642 7.22412 8.76642 7.50012V16.5001ZM20.9002 5.00012H4.10021C2.94101 5.00012 2.00021 5.89612 2.00021 7.00012V17.0001C2.00021 18.1041 2.94101 19.0001 4.10021 19.0001H20.9002C22.0594 19.0001 23.0002 18.1041 23.0002 17.0001V7.00012C23.0002 5.89612 22.0594 5.00012 20.9002 5.00012Z" fill="#313234"/>
</svg>

<svg xmlns="http://www.w3.org/2000/svg" width="24" height="24" fill="none" viewBox="0 0 24 24"><path fill="#313234" fill-rule="evenodd" d="M20.9 16.5c0 .276-.209.5-.467.5h-1.092a.47.47 0 0 1-.43-.303L17.635 13.5l-1.28 3.197a.47.47 0 0 1-.429.303h-1.092c-.257 0-.466-.224-.466-.5v-9c0-.276.21-.5.466-.5h.934c.257 0 .466.224.466.5v6l1.186-2.964a.227.227 0 0 1 .429 0l1.185 2.964v-6c0-.276.21-.5.468-.5h.932c.258 0 .467.224.467.5zm-7.466-8c0 .276-.21.5-.468.5h-1.4v2h1.4c.259 0 .468.224.468.5v1c0 .276-.21.5-.468.5h-1.4v2h1.4c.259 0 .468.224.468.5v1c0 .276-.21.5-.468.5h-2.799c-.258 0-.467-.224-.467-.5v-9c0-.276.209-.5.467-.5h2.8c.258 0 .467.224.467.5zm-4.668 8c0 .276-.209.5-.466.5h-.635c-.258 0-.467-.224-.467-.5l-1.23-4.73v4.73c0 .276-.21.5-.468.5h-.934c-.257 0-.466-.224-.466-.5v-9c0-.276.21-.5.466-.5h.767c.2 0 .379.138.443.342l1.125 4.14V7.5c0-.276.209-.5.466-.5H8.3c.257 0 .466.224.466.5zM20.9 5H4.1C2.941 5 2 5.896 2 7v10c0 1.104.941 2 2.1 2h16.8c1.16 0 2.1-.896 2.1-2V7c0-1.104-.94-2-2.1-2" clip-rule="evenodd"/></svg>
